app/dist/common/images/ofg-bancorp.svg

<svg height="18" viewBox="0 0 18 18" width="18" xmlns="http://www.w3.org/2000/svg"><path d="m0 0h18v18h-18z" fill="#f0f3fa"/><path d="m5 11c-1.11 0-2-.88-2-2s.89-2 2-2c1.12 0 2 .88 2 2 0 1.11-.88 2-2 2zm0-1c.65 0 1-.4 1-1 0-.61-.35-1-1-1s-1 .37-1 1c0 .62.35 1 1 1zm5.5-3v1h-1.5v.5h1v1h-1v1.5h-1v-4zm3.34 1.29c-.14-.26-.47-.29-.84-.29-.64 0-1 .38-1 1 0 .73.5 1 1.05 1 .49 0 .9-.1 1.06-.54h-1.11v-.96h2v1.15a2 2 0 0 1 -1.94 1.35 1.98 1.98 0 0 1 -2.06-2c0-1.16.9-2 2.05-2 .85 0 1.65.43 1.88 1.29z" fill="#f5821f"/></svg>

<!-- by TradingView --><svg width="18" height="18" viewBox="0 0 18 18" xmlns="http://www.w3.org/2000/svg"><path fill="#F0F3FA" d="M0 0h18v18H0z"/><path d="M5 11c-1.11 0-2-.88-2-2s.89-2 2-2c1.12 0 2 .88 2 2 0 1.11-.88 2-2 2Zm0-1c.65 0 1-.4 1-1 0-.61-.35-1-1-1s-1 .37-1 1c0 .62.35 1 1 1ZM10.5 7v1H9v.5h1v1H9V11H8V7h2.5ZM13.84 8.29C13.7 8.03 13.37 8 13 8c-.64 0-1 .38-1 1 0 .73.5 1 1.05 1 .49 0 .9-.1 1.06-.54H13V8.5h2v1.15A2 2 0 0 1 13.06 11 1.98 1.98 0 0 1 11 9c0-1.16.9-2 2.05-2 .85 0 1.65.43 1.88 1.29h-1.09Z" fill="#F5821F"/></svg>
